X:1
T:Title
%%score { ( 1 4 ) | ( 2 3 ) }
L:1/8
M:4/4
K:C
V:1 treble nm="Grand Piano"
V:4 treble 
V:2 bass 
V:3 bass 
V:1
 z4 z2[Q:1/4=100] [CE][DF] | [EG]2 [EG]2 [EG]2 [EG]2 | [FA]2 [Fc]4 [Gc]2 | %3
 [^Fd]3 [Fc] [GB]2 [FA]2 |[M:3/4] G6 |[M:1/4] EF |[M:4/4] [EG]2 [EG]2 [EG]2 [EG]2 | A2 c4 c2 | %8
 d3 c e2 d2 |[M:3/4] [Ec]6 |[M:1/4] cB |[M:4/4] A2 A2 A2 A2 | [EG]2 [EG]4 [EG]2 | %13
 [FA]2 [FA]2 [EG]2 [CE]2 |[M:3/4] [B,G]6 |[M:1/4] [CE][DF] |[M:4/4] [EG]3 [EG] [EG]2 [EG]2 | %17
 A2 c4 c2 | d3 c e2 d2 |[M:3/4] [Ec]6 |] %20
V:2
 z4 z2 [C,G,]2 | [C,C]2 [C,C]2 [C,C]2 [C,C]2 | [F,C]2 [F,A,]4 [E,G,]2 | %3
 [D,A,]3 [D,A,] [D,D]2 [D,C]2 |[M:3/4] [G,,G,]6 |[M:1/4] CD |[M:4/4] [C,C]2 [C,C]2 [C,C]2 [C,C]2 | %7
 [F,CF]2 [F,A,F]4 [A,E]2 | [G,B,G]3 [G,CE] [CG]2 [G,B,F]2 |[M:3/4][K:bass] [C,C]6 |[M:1/4] [C,C]2 | %11
[M:4/4] [F,CF]2 [F,CF]2 [F,CF]2 [F,CF]2 | [C,C]2 [C,C]4 [C,C]2 | [F,C]2 [F,C]2 [C,C]2 [C,G,]2 | %14
[M:3/4] [G,,G,]6 |[M:1/4] [C,G,]2 |[M:4/4] [C,C]3 [C,C] [C,C]2 [C,C]2 | [F,CF]2 [F,A,F]4 [A,E]2 | %18
 [G,B,G]3 [G,CE] [CG]2 [G,B,F]2 |[M:3/4][K:bass] [C,C]6 |] %20
V:3
 x8 | x8 | x8 | x8 |[M:3/4] x6 |[M:1/4] [C,G,]2 |[M:4/4] x8 | x8 | x8 |[M:3/4][K:bass] x6 | %10
[M:1/4] x2 |[M:4/4] x8 | x8 | x8 |[M:3/4] x6 |[M:1/4] x2 |[M:4/4] x8 | x8 | x8 | %19
[M:3/4][K:bass] x6 |] %20
V:4
 x8 | x8 | x8 | x8 |[M:3/4] x6 |[M:1/4] x2 |[M:4/4] x8 | x8 | x8 |[M:3/4] x6 |[M:1/4] E2 | %11
[M:4/4] x8 | x8 | x8 |[M:3/4] x6 |[M:1/4] x2 |[M:4/4] x8 | x8 | x8 |[M:3/4] x6 |] %20

